<?xml version="1.0" encoding="UTF-8"?>
<map version="1.10" tiledversion="1.10.2" orientation="orthogonal" renderorder="right-down" width="10" height="4" tilewidth="128" tileheight="128" infinite="0" nextlayerid="2" nextobjectid="1">
 <tileset firstgid="1" name="lvl4" tilewidth="128" tileheight="128" tilecount="40" columns="10">
  <image source="../images/lvl4.png" width="1280" height="512"/>
  <tile id="4">
   <properties>
    <property name="isWater" type="bool" value="true"/>
   </properties>
  </tile>
  <tile id="12">
   <properties>
    <property name="isPath" type="bool" value="true"/>
   </properties>
  </tile>
  <tile id="13">
   <properties>
    <property name="isPath" type="bool" value="true"/>
   </properties>
  </tile>
  <tile id="14">
   <properties>
    <property name="isPath" type="bool" value="true"/>
   </properties>
  </tile>
  <tile id="15">
   <properties>
    <property name="isPath" type="bool" value="true"/>
   </properties>
  </tile>
  <tile id="20">
   <properties>
    <property name="isPath" type="bool" value="true"/>
   </properties>
  </tile>
  <tile id="21">
   <properties>
    <property name="isPath" type="bool" value="true"/>
   </properties>
  </tile>
  <tile id="22">
   <properties>
    <property name="isPath" type="bool" value="true"/>
   </properties>
  </tile>
  <tile id="24">
   <properties>
    <property name="isWater" type="bool" value="true"/>
   </properties>
  </tile>
  <tile id="25">
   <properties>
    <property name="isPath" type="bool" value="true"/>
   </properties>
  </tile>
  <tile id="26">
   <properties>
    <property name="isPath" type="bool" value="true"/>
   </properties>
  </tile>
  <tile id="27">
   <properties>
    <property name="isPath" type="bool" value="true"/>
   </properties>
  </tile>
  <tile id="28">
   <properties>
    <property name="isPath" type="bool" value="true"/>
   </properties>
  </tile>
  <tile id="29">
   <properties>
    <property name="isPath" type="bool" value="true"/>
   </properties>
  </tile>
  <tile id="34">
   <properties>
    <property name="isWater" type="bool" value="true"/>
   </properties>
  </tile>
 </tileset>
 <layer id="1" name="Tile Layer 1" width="10" height="4">
  <data encoding="csv">
1,2,3,4,5,6,7,8,9,10,
11,12,13,14,15,16,17,18,19,20,
21,22,23,24,25,26,27,28,29,30,
31,32,33,34,35,36,37,38,39,40
</data>
 </layer>
</map>
